dist/img/sprites/logos_whatsapp-icon.svg

<svg width="25" height="25" viewBox="0 0 25 25" fill="none" xmlns="http://www.w3.org/2000/svg">
<g clip-path="url(#clip0_1194_60774)">
<path d="M1.00011 12.3563C0.999553 14.3728 1.52644 16.3417 2.5283 18.0771L0.904297 24.0066L6.97239 22.4156C8.65074 23.3292 10.5312 23.808 12.4422 23.8081H12.4472C18.7556 23.8081 23.8907 18.6748 23.8934 12.3653C23.8946 9.30792 22.705 6.43295 20.5437 4.26997C18.3828 2.10718 15.5089 0.915458 12.4467 0.914062C6.1376 0.914062 1.00281 6.04709 1.0002 12.3563" fill="url(#paint0_linear_1194_60774)"/>
<path d="M0.593676 12.3527C0.593024 14.4417 1.13879 16.481 2.17637 18.2786L0.494141 24.4207L6.77981 22.7726C8.51172 23.7168 10.4617 24.2147 12.4459 24.2154H12.451C18.9857 24.2154 24.3053 18.8975 24.3081 12.3621C24.3092 9.19488 23.0768 6.21656 20.8383 3.97609C18.5995 1.73591 15.6228 0.501302 12.451 0.5C5.91516 0.5 0.59628 5.81721 0.593676 12.3527ZM4.33702 17.969L4.10233 17.5965C3.11572 16.0277 2.59498 14.2149 2.59572 12.3534C2.59777 6.9213 7.01861 2.50186 12.4547 2.50186C15.0873 2.50298 17.5613 3.52921 19.4221 5.39116C21.2829 7.2533 22.3068 9.72865 22.3061 12.3614C22.3037 17.7935 17.8828 22.2135 12.451 22.2135H12.4471C10.6784 22.2126 8.94382 21.7376 7.43107 20.84L7.07107 20.6265L3.34102 21.6045L4.33702 17.969Z" fill="url(#paint1_linear_1194_60774)"/>
<path d="M9.48522 7.39771C9.26327 6.9044 9.02969 6.89445 8.81862 6.8858C8.64578 6.87836 8.4482 6.87892 8.2508 6.87892C8.05322 6.87892 7.7322 6.95324 7.46085 7.24952C7.18922 7.54608 6.42383 8.26273 6.42383 9.72031C6.42383 11.178 7.4855 12.5866 7.6335 12.7845C7.78169 12.982 9.68308 16.0689 12.6944 17.2564C15.1971 18.2433 15.7064 18.047 16.2496 17.9975C16.7929 17.9482 18.0025 17.2811 18.2493 16.5892C18.4963 15.8975 18.4963 15.3046 18.4222 15.1807C18.3482 15.0572 18.1506 14.9831 17.8543 14.835C17.558 14.6868 16.1014 13.9701 15.8299 13.8712C15.5582 13.7724 15.3608 13.7231 15.1632 14.0198C14.9656 14.3159 14.3982 14.9831 14.2253 15.1807C14.0526 15.3787 13.8796 15.4034 13.5835 15.2552C13.287 15.1065 12.3329 14.7941 11.2009 13.7849C10.3201 12.9996 9.7255 12.0298 9.55267 11.7331C9.37983 11.437 9.53415 11.2764 9.68271 11.1288C9.81583 10.996 9.97908 10.7828 10.1274 10.6099C10.2751 10.4369 10.3244 10.3134 10.4232 10.1158C10.5221 9.91808 10.4726 9.74506 10.3986 9.59687C10.3244 9.44868 9.74867 7.98347 9.48522 7.39771Z" fill="white"/>
</g>
<defs>
<linearGradient id="paint0_linear_1194_60774" x1="1150.36" y1="2310.17" x2="1150.36" y2="0.914062" gradientUnits="userSpaceOnUse">
<stop stop-color="#1FAF38"/>
<stop offset="1" stop-color="#60D669"/>
</linearGradient>
<linearGradient id="paint1_linear_1194_60774" x1="1191.19" y1="2392.57" x2="1191.19" y2="0.5" gradientUnits="userSpaceOnUse">
<stop stop-color="#1FAF38"/>
<stop offset="1" stop-color="#60D669"/>
</linearGradient>
<clipPath id="clip0_1194_60774">
<rect width="23.82" height="24" fill="white" transform="translate(0.490234 0.5)"/>
</clipPath>
</defs>
</svg>

<svg width="25" height="25" viewBox="0 0 25 25" fill="none" xmlns="http://www.w3.org/2000/svg"><g clip-path="url(#clip0_1194_60774)"><path d="M1 12.356c0 2.017.526 3.986 1.528 5.721l-1.624 5.93 6.068-1.591a11.442 11.442 0 005.47 1.392h.005c6.309 0 11.444-5.133 11.446-11.443a11.372 11.372 0 00-3.35-8.095A11.374 11.374 0 0012.448.914C6.137.914 1.003 6.047 1 12.356" fill="url(#paint0_linear_1194_60774)"/><path d="M.594 12.353a11.835 11.835 0 001.582 5.926L.494 24.42l6.286-1.648a11.852 11.852 0 005.666 1.442h.005c6.535 0 11.854-5.317 11.857-11.853a11.782 11.782 0 00-3.47-8.386A11.783 11.783 0 0012.451.5C5.915.5.596 5.817.594 12.353zm3.743 5.616l-.235-.373a9.826 9.826 0 01-1.506-5.243c.002-5.432 4.423-9.851 9.859-9.851a9.791 9.791 0 016.967 2.89 9.792 9.792 0 012.884 6.97c-.002 5.432-4.423 9.851-9.855 9.851h-.004a9.844 9.844 0 01-5.016-1.373l-.36-.213-3.73.978.996-3.636z" fill="url(#paint1_linear_1194_60774)"/><path d="M9.485 7.398c-.222-.494-.455-.504-.666-.512-.173-.008-.37-.007-.568-.007-.198 0-.519.074-.79.37-.272.297-1.037 1.014-1.037 2.471 0 1.458 1.061 2.867 1.21 3.064.148.198 2.05 3.285 5.06 4.472 2.503.987 3.012.791 3.556.741.543-.049 1.753-.716 2-1.408.246-.691.246-1.284.172-1.408-.074-.124-.271-.198-.568-.346-.296-.148-1.753-.865-2.024-.964-.272-.099-.47-.148-.667.149-.197.296-.765.963-.938 1.16-.172.199-.345.223-.641.075-.297-.149-1.251-.46-2.383-1.47-.88-.785-1.476-1.755-1.648-2.052-.173-.296-.019-.457.13-.604.133-.133.296-.346.444-.52.148-.172.197-.296.296-.493.1-.198.05-.37-.024-.52-.075-.147-.65-1.613-.914-2.198z" fill="#fff"/></g><defs><linearGradient id="paint0_linear_1194_60774" x1="1150.36" y1="2310.17" x2="1150.36" y2=".914" gradientUnits="userSpaceOnUse"><stop stop-color="#1FAF38"/><stop offset="1" stop-color="#60D669"/></linearGradient><linearGradient id="paint1_linear_1194_60774" x1="1191.19" y1="2392.57" x2="1191.19" y2=".5" gradientUnits="userSpaceOnUse"><stop stop-color="#1FAF38"/><stop offset="1" stop-color="#60D669"/></linearGradient><clipPath id="clip0_1194_60774"><path fill="#fff" transform="translate(.49 .5)" d="M0 0h23.82v24H0z"/></clipPath></defs></svg>
